_includes/icons/ios-leaf.svg

<svg fill="#666" height="50" viewBox="0 0 50 50" width="50" xmlns="http://www.w3.org/2000/svg"><path d="m39.875 1c-.28125.042969-.53125.199219-.6875.4375-1.164062 1.644531-2.914062 2.652344-5.15625 3.4375-2.242187.785156-4.929687 1.308594-7.78125 2.03125-5.703125 1.441406-12.113281 3.730469-16.59375 10.65625-4.007812 6.171875-2.457031 11.875.6875 15.6875 1.574219 1.90625 3.507813 3.386719 5.375 4.375.984375.519531 1.898438.859375 2.78125 1.0625-1.972656 1.671875-3.949219 3.078125-5.875 4.0625-2.949219 1.507813-5.714844 2.03125-8.0625 1.375-.535156-.148437-1.085937.167969-1.234375.703125-.148437.535156.167969 1.085938.703125 1.234375 3.003906.84375 6.273438.117188 9.5-1.53125 2.25-1.148437 4.5-2.746094 6.6875-4.65625.371094 1.136719.960938 2.3125 2.03125 3.375 1.609375 1.59375 4.144531 2.75 7.84375 2.75 8.945313 0 23.785156-13.433594 10.84375-44.375-.167969-.429687-.605469-.6875-1.0625-.625zm-.34375 2.78125c11.550781 29.132813-2.699219 40.21875-9.4375 40.21875-3.300781 0-5.21875-.949219-6.4375-2.15625-1.046875-1.035156-1.570312-2.320312-1.84375-3.46875.40625-.386719.820313-.753906 1.21875-1.15625 6.105469-6.167969 11.46875-14.335937 14.1875-21.15625.136719-.332031.085938-.710937-.132812-.996094-.21875-.285156-.574219-.429687-.929688-.378906-.359375.058594-.660156.3125-.78125.65625-2.582031 6.480469-7.855469 14.511719-13.75 20.46875-.410156.414063-.835937.792969-1.25 1.1875-.78125.011719-2.207031-.324219-3.71875-1.125-1.644531-.867187-3.402344-2.207031-4.78125-3.875-2.753906-3.339844-4.125-7.8125-.53125-13.34375 4.121094-6.375 9.804688-8.40625 15.375-9.8125 2.785156-.703125 5.527344-1.238281 7.96875-2.09375 1.863281-.652344 3.476563-1.664062 4.84375-2.96875z"/></svg>

<svg xmlns="http://www.w3.org/2000/svg" viewBox="0 0 50 50" width="50" height="50" fill="#666"><path d="M 39.875 1 C 39.59375 1.042969 39.34375 1.199219 39.1875 1.4375 C 38.023438 3.082031 36.273438 4.089844 34.03125 4.875 C 31.789063 5.660156 29.101563 6.183594 26.25 6.90625 C 20.546875 8.347656 14.136719 10.636719 9.65625 17.5625 C 5.648438 23.734375 7.199219 29.4375 10.34375 33.25 C 11.917969 35.15625 13.851563 36.636719 15.71875 37.625 C 16.703125 38.144531 17.617188 38.484375 18.5 38.6875 C 16.527344 40.359375 14.550781 41.765625 12.625 42.75 C 9.675781 44.257813 6.910156 44.78125 4.5625 44.125 C 4.027344 43.976563 3.476563 44.292969 3.328125 44.828125 C 3.179688 45.363281 3.496094 45.914063 4.03125 46.0625 C 7.035156 46.90625 10.304688 46.179688 13.53125 44.53125 C 15.78125 43.382813 18.03125 41.785156 20.21875 39.875 C 20.589844 41.011719 21.179688 42.1875 22.25 43.25 C 23.859375 44.84375 26.394531 46 30.09375 46 C 39.039063 46 53.878906 32.566406 40.9375 1.625 C 40.769531 1.195313 40.332031 0.9375 39.875 1 Z M 39.53125 3.78125 C 51.082031 32.914063 36.832031 44 30.09375 44 C 26.792969 44 24.875 43.050781 23.65625 41.84375 C 22.609375 40.808594 22.085938 39.523438 21.8125 38.375 C 22.21875 37.988281 22.632813 37.621094 23.03125 37.21875 C 29.136719 31.050781 34.5 22.882813 37.21875 16.0625 C 37.355469 15.730469 37.304688 15.351563 37.085938 15.066406 C 36.867188 14.78125 36.511719 14.636719 36.15625 14.6875 C 35.796875 14.746094 35.496094 15 35.375 15.34375 C 32.792969 21.824219 27.519531 29.855469 21.625 35.8125 C 21.214844 36.226563 20.789063 36.605469 20.375 37 C 19.59375 37.011719 18.167969 36.675781 16.65625 35.875 C 15.011719 35.007813 13.253906 33.667969 11.875 32 C 9.121094 28.660156 7.75 24.1875 11.34375 18.65625 C 15.464844 12.28125 21.148438 10.25 26.71875 8.84375 C 29.503906 8.140625 32.246094 7.605469 34.6875 6.75 C 36.550781 6.097656 38.164063 5.085938 39.53125 3.78125 Z"/></svg>
